src/Pure/16/symbolic/actions/phonelink-ring-symbolic.svg

<?xml version="1.0" encoding="UTF-8" standalone="no"?>
<svg
   width="16"
   height="16"
   version="1.1"
   id="svg1"
   sodipodi:docname="phonelink-ring-symbolic.svg"
   inkscape:version="1.4.2 (ebf0e940d0, 2025-05-08)"
   xmlns:inkscape="http://www.inkscape.org/namespaces/inkscape"
   xmlns:sodipodi="http://sodipodi.sourceforge.net/DTD/sodipodi-0.dtd"
   xmlns="http://www.w3.org/2000/svg"
   xmlns:svg="http://www.w3.org/2000/svg">
  <defs
      id="defs1">
      <style
          id="current-color-scheme"
          type="text/css">
          .ColorScheme-Text { color:#363636; }
      </style>
  </defs>
  <sodipodi:namedview
     id="namedview1"
     pagecolor="#ffffff"
     bordercolor="#000000"
     borderopacity="0.25"
     inkscape:showpageshadow="2"
     inkscape:pageopacity="0.0"
     inkscape:pagecheckerboard="0"
     inkscape:deskcolor="#d1d1d1"
     inkscape:zoom="49.6875"
     inkscape:cx="8"
     inkscape:cy="8"
     inkscape:window-width="1920"
     inkscape:window-height="1010"
     inkscape:window-x="0"
     inkscape:window-y="0"
     inkscape:window-maximized="1"
     inkscape:current-layer="svg1" />
  <path
     id="path1"
     style="fill:currentColor;fill-opacity:1"
     class="ColorScheme-Text"
     d="M 4 0 C 3.446 0 3 0.446 3 1 L 3 15 C 3 15.554 3.446 16 4 16 L 12 16 C 12.554 16 13 15.554 13 15 L 11.449219 15 L 11 15 L 4.5507812 15 C 4.2453012 15 4 14.754699 4 14.449219 L 4 1.5507812 C 4 1.2453013 4.2453013 1 4.5507812 1 L 5.5 1 L 6 1.6953125 C 6.098713 1.8325025 6.1356675 2 6.3046875 2 L 9.6953125 2 C 9.8643325 2 9.90128 1.8325125 10 1.6953125 L 10.5 1 L 11 1 L 11.449219 1 L 13 1 C 13 0.446 12.554 0 12 0 L 10.695312 0 L 5.3046875 0 L 4 0 z M 13.642578 2.3574219 L 12.949219 3.0507812 C 14.262019 4.3632812 14.9997 6.1436 15 8 C 14.9919 10.0151 14.115743 11.928953 12.595703 13.251953 L 13.265625 14.019531 C 15.002325 12.501131 15.999 10.3069 16 8 C 15.9924 5.8812 15.144588 3.8519219 13.642578 2.3574219 z M 11.523438 4.4765625 L 10.828125 5.171875 C 11.578305 5.921885 11.9998 6.9392 12 8 C 11.9937 9.1509 11.492027 10.243447 10.623047 10.998047 L 11.287109 11.757812 C 12.372909 10.810543 12.9972 9.4409 13 8 C 12.9936 6.6764189 12.462612 5.4092587 11.523438 4.4765625 z M 9.4140625 6.5859375 L 8.7070312 7.2929688 A 1 1 0 0 1 9 8 A 1 1 0 0 1 8.6484375 8.7558594 L 9.3007812 9.5175781 A 2 2 0 0 0 10 8 A 2 2 0 0 0 9.4140625 6.5859375 z " />
  <rect
     x="6"
     y="14"
     width="4"
     height=".418"
     ry=".209"
     style="fill:currentColor;fill-opacity:.35"
     class="ColorScheme-Text"
     id="rect1" />
</svg>

<svg width="16" height="16" version="1.1" xmlns="http://www.w3.org/2000/svg">
 <path d="m4 0c-0.554 0-1 0.446-1 1v14c0 0.554 0.446 1 1 1h8c0.554 0 1-0.446 1-1h-1.5508-0.44922-6.4492c-0.30548 0-0.55078-0.2453-0.55078-0.55078v-12.898c0-0.30548 0.2453-0.55078 0.55078-0.55078h0.94922l0.5 0.69531c0.098713 0.13719 0.13567 0.30469 0.30469 0.30469h3.3906c0.16902 0 0.20597-0.16749 0.30469-0.30469l0.5-0.69531h0.5 0.44922 1.5508c0-0.554-0.446-1-1-1h-1.3047-5.3906-1.3047zm9.6426 2.3574-0.69336 0.69336c1.3128 1.3125 2.0505 3.0928 2.0508 4.9492-0.0081 2.0151-0.88426 3.929-2.4043 5.252l0.66992 0.76758c1.7367-1.5184 2.7334-3.7126 2.7344-6.0195-0.0076-2.1188-0.85539-4.1481-2.3574-5.6426zm-2.1191 2.1191-0.69531 0.69531c0.75018 0.75001 1.1717 1.7673 1.1719 2.8281-0.0063 1.1509-0.50802 2.2434-1.377 2.998l0.66406 0.75976c1.0858-0.94727 1.7101-2.3169 1.7129-3.7578-0.0064-1.3236-0.5374-2.5907-1.4766-3.5234zm-2.1094 2.1094-0.70703 0.70703a1 1 0 0 1 0.29297 0.70703 1 1 0 0 1-0.35156 0.75586l0.65234 0.76172a2 2 0 0 0 0.69922-1.5176 2 2 0 0 0-0.58594-1.4141z" fill="#363636" style="paint-order:stroke fill markers"/>
 <rect x="6" y="14" width="4" height=".418" ry=".209" fill="#363636" fill-rule="evenodd" opacity=".35" style="paint-order:stroke fill markers"/>
</svg>
